images/info.svg

<svg width="40" height="40" fill="none" xmlns="http://www.w3.org/2000/svg"><circle cx="20" cy="20" r="20" fill="#DCDCDC" fill-opacity=".5"/><g opacity=".3" fill="#000"><path d="M21 14h-2v2h2v-2ZM21 18h-2v8h2v-8Z"/></g></svg>

<svg width="40" height="40" viewBox="0 0 40 40" fill="none" xmlns="http://www.w3.org/2000/svg">
<circle cx="20" cy="20" r="20" fill="#DCDCDC" fill-opacity="0.5"/>
<g opacity="0.3">
<path d="M21 14H19V16H21V14Z" fill="black"/>
<path d="M21 18H19V26H21V18Z" fill="black"/>
</g>
</svg>
